static/img/logo/hide.svg

<?xml version="1.0" encoding="UTF-8" standalone="no"?>
<svg
   xmlns:dc="http://purl.org/dc/elements/1.1/"
   xmlns:cc="http://creativecommons.org/ns#"
   xmlns:rdf="http://www.w3.org/1999/02/22-rdf-syntax-ns#"
   xmlns:svg="http://www.w3.org/2000/svg"
   xmlns="http://www.w3.org/2000/svg"
   xmlns:sodipodi="http://sodipodi.sourceforge.net/DTD/sodipodi-0.dtd"
   xmlns:inkscape="http://www.inkscape.org/namespaces/inkscape"
   inkscape:version="1.0 (4035a4fb49, 2020-05-01)"
   sodipodi:docname="hide.svg"
   id="svg12"
   preserveAspectRatio="xMidYMid meet"
   version="1.1"
   viewBox="0 0 36 36"
   height="36px"
   width="36px">
  <metadata
     id="metadata18">
    <rdf:RDF>
      <cc:Work
         rdf:about="">
        <dc:format>image/svg+xml</dc:format>
        <dc:type
           rdf:resource="http://purl.org/dc/dcmitype/StillImage" />
      </cc:Work>
    </rdf:RDF>
  </metadata>
  <defs
     id="defs16" />
  <sodipodi:namedview
     inkscape:current-layer="svg12"
     inkscape:window-maximized="1"
     inkscape:window-y="-8"
     inkscape:window-x="-8"
     inkscape:cy="9.8195768"
     inkscape:cx="31.652883"
     inkscape:zoom="13.19135"
     showgrid="false"
     id="namedview14"
     inkscape:window-height="1017"
     inkscape:window-width="1920"
     inkscape:pageshadow="2"
     inkscape:pageopacity="0"
     guidetolerance="10"
     gridtolerance="10"
     objecttolerance="10"
     borderopacity="1"
     bordercolor="#666666"
     pagecolor="#ffffff" />
  <title
     id="title2">eye-hide-line</title>
  <path
     style="fill:#b9b9b9;fill-opacity:1"
     id="path4"
     class="clr-i-outline clr-i-outline-path-1"
     d="M25.19,20.4A6.78,6.78,0,0,0,25.62,18a6.86,6.86,0,0,0-6.86-6.86,6.79,6.79,0,0,0-2.37.43L18,13.23a4.78,4.78,0,0,1,.74-.06A4.87,4.87,0,0,1,23.62,18a4.79,4.79,0,0,1-.06.74Z" />
  <path
     style="fill:#b9b9b9;fill-opacity:1;stroke-width:1;stroke-miterlimit:4;stroke-dasharray:none"
     id="path6"
     class="clr-i-outline clr-i-outline-path-2"
     d="M34.29,17.53c-3.37-6.23-9.28-10-15.82-10a16.82,16.82,0,0,0-5.24.85L14.84,10a14.78,14.78,0,0,1,3.63-.47c5.63,0,10.75,3.14,13.8,8.43a17.75,17.75,0,0,1-4.37,5.1l1.42,1.42a19.93,19.93,0,0,0,5-6l.26-.48Z" />
  <path
     style="fill:#b9b9b9;fill-opacity:1"
     id="path8"
     class="clr-i-outline clr-i-outline-path-3"
     d="M4.87,5.78l4.46,4.46a19.52,19.52,0,0,0-6.69,7.29L2.38,18l.26.48c3.37,6.23,9.28,10,15.82,10a16.93,16.93,0,0,0,7.37-1.69l5,5,1.75-1.5-26-26Zm9.75,9.75,6.65,6.65a4.81,4.81,0,0,1-2.5.72A4.87,4.87,0,0,1,13.9,18,4.81,4.81,0,0,1,14.62,15.53Zm-1.45-1.45a6.85,6.85,0,0,0,9.55,9.55l1.6,1.6a14.91,14.91,0,0,1-5.86,1.2c-5.63,0-10.75-3.14-13.8-8.43a17.29,17.29,0,0,1,6.12-6.3Z" />
  <rect
     id="rect10"
     fill-opacity="0"
     height="36"
     width="36"
     y="0"
     x="0" />
</svg>

<?xml version="1.0" encoding="UTF-8" standalone="no"?>
<svg
   inkscape:version="1.2.1 (9c6d41e410, 2022-07-14, custom)"
   sodipodi:docname="hide.svg"
   id="svg12"
   preserveAspectRatio="xMidYMid meet"
   version="1.1"
   viewBox="0 0 36 36"
   height="36px"
   width="36px"
   xmlns:inkscape="http://www.inkscape.org/namespaces/inkscape"
   xmlns:sodipodi="http://sodipodi.sourceforge.net/DTD/sodipodi-0.dtd"
   xmlns="http://www.w3.org/2000/svg"
   xmlns:svg="http://www.w3.org/2000/svg"
   xmlns:rdf="http://www.w3.org/1999/02/22-rdf-syntax-ns#"
   xmlns:cc="http://creativecommons.org/ns#"
   xmlns:dc="http://purl.org/dc/elements/1.1/">
  <metadata
     id="metadata18">
    <rdf:RDF>
      <cc:Work
         rdf:about="">
        <dc:format>image/svg+xml</dc:format>
        <dc:type
           rdf:resource="http://purl.org/dc/dcmitype/StillImage" />
      </cc:Work>
    </rdf:RDF>
  </metadata>
  <defs
     id="defs16" />
  <sodipodi:namedview
     inkscape:current-layer="svg12"
     inkscape:window-maximized="1"
     inkscape:window-y="30"
     inkscape:window-x="0"
     inkscape:cy="27.972876"
     inkscape:cx="31.725335"
     inkscape:zoom="13.19135"
     showgrid="false"
     id="namedview14"
     inkscape:window-height="1021"
     inkscape:window-width="1920"
     inkscape:pageshadow="2"
     inkscape:pageopacity="0"
     guidetolerance="10"
     gridtolerance="10"
     objecttolerance="10"
     borderopacity="1"
     bordercolor="#666666"
     pagecolor="#ffffff"
     inkscape:showpageshadow="2"
     inkscape:pagecheckerboard="0"
     inkscape:deskcolor="#d1d1d1" />
  <title
     id="title2">eye-hide-line</title>
  <g
     id="g1158"
     transform="translate(-0.44326252,-0.33372496)">
    <path
       style="fill:#b9b9b9;fill-opacity:1"
       id="path4"
       class="clr-i-outline clr-i-outline-path-1"
       d="M 25.19,20.4 A 6.78,6.78 0 0 0 25.62,18 6.86,6.86 0 0 0 18.76,11.14 6.79,6.79 0 0 0 16.39,11.57 L 18,13.23 a 4.78,4.78 0 0 1 0.74,-0.06 4.87,4.87 0 0 1 4.88,4.83 4.79,4.79 0 0 1 -0.06,0.74 z" />
    <path
       style="fill:#b9b9b9;fill-opacity:1;stroke-width:1;stroke-miterlimit:4;stroke-dasharray:none"
       id="path6"
       class="clr-i-outline clr-i-outline-path-2"
       d="M 34.29,17.53 C 30.92,11.3 25.01,7.53 18.47,7.53 A 16.82,16.82 0 0 0 13.23,8.38 L 14.84,10 a 14.78,14.78 0 0 1 3.63,-0.47 c 5.63,0 10.75,3.14 13.8,8.43 a 17.75,17.75 0 0 1 -4.37,5.1 l 1.42,1.42 a 19.93,19.93 0 0 0 5,-6 L 34.58,18 Z" />
    <path
       style="fill:#b9b9b9;fill-opacity:1"
       id="path8"
       class="clr-i-outline clr-i-outline-path-3"
       d="m 4.87,5.78 4.46,4.46 A 19.52,19.52 0 0 0 2.64,17.53 L 2.38,18 2.64,18.48 c 3.37,6.23 9.28,10 15.82,10 a 16.93,16.93 0 0 0 7.37,-1.69 l 5,5 1.75,-1.5 -26,-26 z m 9.75,9.75 6.65,6.65 A 4.81,4.81 0 0 1 18.77,22.9 4.87,4.87 0 0 1 13.9,18 4.81,4.81 0 0 1 14.62,15.53 Z m -1.45,-1.45 a 6.85,6.85 0 0 0 9.55,9.55 l 1.6,1.6 a 14.91,14.91 0 0 1 -5.86,1.2 C 12.83,26.43 7.71,23.29 4.66,18 a 17.29,17.29 0 0 1 6.12,-6.3 z" />
  </g>
</svg>
